logos/tv.bbcalba.svg

<?xml version="1.0" encoding="UTF-8" standalone="no"?>
<!-- Created with Inkscape (http://www.inkscape.org/) -->

<svg
   xmlns:dc="http://purl.org/dc/elements/1.1/"
   xmlns:cc="http://creativecommons.org/ns#"
   xmlns:rdf="http://www.w3.org/1999/02/22-rdf-syntax-ns#"
   xmlns:svg="http://www.w3.org/2000/svg"
   xmlns="http://www.w3.org/2000/svg"
   xmlns:inkscape="http://www.inkscape.org/namespaces/inkscape"
   version="1.0"
   width="200"
   height="146"
   id="svg2">
  <metadata
     id="metadata35">
    <rdf:RDF>
      <cc:Work
         rdf:about="">
        <dc:format>image/svg+xml</dc:format>
        <dc:type
           rdf:resource="http://purl.org/dc/dcmitype/StillImage" />
      </cc:Work>
    </rdf:RDF>
  </metadata>
  <defs
     id="defs33" />
  <g
     transform="translate(-578.02181,-355.62997)"
     id="layer1">
    <g
       transform="matrix(3.8390663,0,0,-3.8390663,578.02181,355.68383)"
       id="g2734">
      <path
         d="m 0,0 52.096,0 0,-10.675 L 0,-14.519 0,0 z"
         inkscape:connector-curvature="0"
         id="path2736"
         style="fill:#007eab;fill-rule:nonzero;stroke:none" />
    </g>
    <g
       transform="matrix(3.8390663,0,0,-3.8390663,-1344.0444,2182.6049)"
       id="g2738">
      <g
         transform="translate(543.0224,470.36549)"
         id="g2740">
        <path
           d="m 0,0 c 0,0 -4.452,-4.302 -4.357,-4.42 0.096,-0.118 5.522,2.613 6.366,2.881 0.831,0.265 1.341,-0.409 1.341,-0.409 0,0 5.649,-6.314 5.816,-6.161 0.152,0.139 -3.357,7.271 -3.582,8.102 -0.244,0.896 0.73,1.697 0.73,1.697 0,0 2.024,1.969 3.419,3.402 0,0.071 0,0.354 0,0.419 -0.078,0 -1.004,0.005 -1.015,0 C 7.041,4.663 4.976,3.577 4.448,3.368 3.554,3.013 3.051,3.503 3.051,3.503 c 0,0 -1.133,1.087 -2.155,2.008 0.001,-0.007 -1.272,-0.003 -1.274,0 C 0.102,4.204 0.852,2.288 0.952,1.743 1.11,0.881 0,0 0,0"
           inkscape:connector-curvature="0"
           id="path2742"
           style="fill:#ffffff;fill-rule:nonzero;stroke:none" />
      </g>
    </g>
    <g
       transform="matrix(3.8390663,0,0,-3.8390663,578.02181,409.78238)"
       id="g2744">
      <path
         d="m 0,0 52.096,3.843 0,-27.756 L 0,-23.913 0,0 z"
         inkscape:connector-curvature="0"
         id="path2746"
         style="fill:#00325d;fill-rule:nonzero;stroke:none" />
    </g>
    <g
       transform="matrix(3.8390663,0,0,-3.8390663,630.02154,477.94849)"
       id="g2748">
      <path
         d="M 0,0 -2.534,0 -1.246,3.708 0,0 z m 3.207,-3.479 -3.723,10.193 -1.56,0 -3.708,-10.193 2.076,0 0.616,1.804 3.622,0 0.601,-1.804 2.076,0 z"
         inkscape:connector-curvature="0"
         id="path2750"
         style="fill:#ffffff;fill-rule:nonzero;stroke:none" />
    </g>
    <g
       transform="matrix(3.8390663,0,0,-3.8390663,673.10623,491.30388)"
       id="g2752">
      <path
         d="m 0,0 0,1.775 -4.624,0 0,8.418 -1.99,0 L -6.614,0 0,0 z"
         inkscape:connector-curvature="0"
         id="path2754"
         style="fill:#ffffff;fill-rule:nonzero;stroke:none" />
    </g>
    <g
       transform="matrix(3.8390663,0,0,-3.8390663,-1344.0444,2182.6049)"
       id="g2756">
      <g
         transform="translate(532.58479,443.58501)"
         id="g2758">
        <path
           d="m 0,0 c 0,-0.687 -0.43,-1.26 -1.331,-1.26 l -2.076,0 0,2.505 2.076,0 C -0.43,1.245 0,0.687 0,0 m -0.143,4.209 c 0,-0.701 -0.472,-1.174 -1.317,-1.174 l -1.947,0 0,2.348 1.947,0 c 0.845,0 1.317,-0.472 1.317,-1.174 M 1.99,-0.1 c 0,1.36 -0.787,2.004 -1.403,2.29 0.515,0.244 1.26,0.974 1.26,2.105 0,1.747 -1.16,2.863 -3.15,2.863 l -4.095,0 0,-10.193 4.267,0 c 1.818,0 3.121,1.031 3.121,2.935"
           inkscape:connector-curvature="0"
           id="path2760"
           style="fill:#ffffff;fill-rule:evenodd;stroke:none" />
      </g>
      <g
         transform="translate(541.4171,444.0289)"
         id="g2762">
        <path
           d="M 0,0 -2.534,0 -1.245,3.708 0,0 z m 3.207,-3.479 -3.722,10.193 -1.561,0 -3.708,-10.193 2.076,0 0.616,1.804 3.622,0 0.601,-1.804 2.076,0 z"
           inkscape:connector-curvature="0"
           id="path2764"
           style="fill:#ffffff;fill-rule:evenodd;stroke:none" />
      </g>
      <path
         d="m 515.819,460.335 6.676,0 0,-6.283 -6.676,0 0,6.283 z"
         inkscape:connector-curvature="0"
         id="path2766"
         style="fill:#ffffff;fill-rule:evenodd;stroke:none" />
      <path
         d="m 523.477,460.335 6.676,0 0,-6.283 -6.676,0 0,6.283 z"
         inkscape:connector-curvature="0"
         id="path2768"
         style="fill:#ffffff;fill-rule:evenodd;stroke:none" />
      <path
         d="m 531.134,460.335 6.676,0 0,-6.283 -6.676,0 0,6.283 z"
         inkscape:connector-curvature="0"
         id="path2770"
         style="fill:#ffffff;fill-rule:evenodd;stroke:none" />
      <g
         transform="translate(518.9086,456.9991)"
         id="g2772">
        <path
           d="m 0,0 -0.615,0 0,-1.458 0.648,0 c 0.36,0 0.603,0.027 0.731,0.082 0.129,0.057 0.232,0.145 0.309,0.263 0.079,0.119 0.119,0.246 0.119,0.382 0,0.141 -0.042,0.269 -0.126,0.386 C 0.985,-0.229 0.869,-0.143 0.718,-0.086 0.566,-0.029 0.327,0 0,0 m -0.049,1.968 -0.566,0 0,-1.382 0.437,0 c 0.351,0 0.601,0.067 0.747,0.201 0.15,0.134 0.224,0.307 0.225,0.52 0,0.441 -0.281,0.661 -0.843,0.661 m 0.332,-4.012 -1.557,0 0,4.598 1.205,0 C 0.31,2.554 0.607,2.503 0.82,2.4 1.033,2.299 1.195,2.158 1.307,1.978 1.419,1.8 1.475,1.594 1.475,1.359 1.475,0.907 1.241,0.583 0.774,0.388 1.109,0.325 1.376,0.186 1.573,-0.026 c 0.2,-0.213 0.3,-0.468 0.3,-0.764 0,-0.235 -0.06,-0.444 -0.181,-0.629 C 1.571,-1.603 1.394,-1.753 1.159,-1.87 0.926,-1.986 0.634,-2.044 0.283,-2.044"
           inkscape:connector-curvature="0"
           id="path2774"
           style="fill:#00325d;fill-rule:evenodd;stroke:none" />
      </g>
      <g
         transform="translate(526.5665,456.9991)"
         id="g2776">
        <path
           d="m 0,0 -0.615,0 0,-1.458 0.648,0 c 0.36,0 0.603,0.027 0.73,0.082 0.13,0.057 0.233,0.145 0.31,0.263 0.079,0.119 0.119,0.246 0.119,0.382 0,0.141 -0.042,0.269 -0.125,0.386 C 0.985,-0.229 0.869,-0.143 0.718,-0.086 0.566,-0.029 0.327,0 0,0 m -0.049,1.968 -0.566,0 0,-1.382 0.437,0 c 0.351,0 0.6,0.067 0.747,0.201 0.149,0.134 0.224,0.307 0.224,0.52 0,0.441 -0.281,0.661 -0.842,0.661 m 0.332,-4.012 -1.557,0 0,4.598 1.205,0 C 0.31,2.554 0.607,2.503 0.819,2.4 1.032,2.299 1.195,2.158 1.307,1.978 1.419,1.8 1.474,1.594 1.474,1.359 1.474,0.907 1.241,0.583 0.773,0.388 c 0.336,-0.063 0.603,-0.202 0.8,-0.414 0.2,-0.213 0.3,-0.468 0.3,-0.764 0,-0.235 -0.06,-0.444 -0.181,-0.629 C 1.571,-1.603 1.393,-1.753 1.159,-1.87 0.926,-1.986 0.634,-2.044 0.283,-2.044"
           inkscape:connector-curvature="0"
           id="path2778"
           style="fill:#00325d;fill-rule:evenodd;stroke:none" />
      </g>
      <g
         transform="translate(536.5208,456.0215)"
         id="g2780">
        <path
           d="m 0,0 0,-0.724 c -0.483,-0.264 -1.04,-0.395 -1.672,-0.395 -0.514,0 -0.949,0.103 -1.307,0.309 -0.358,0.206 -0.641,0.49 -0.849,0.853 -0.209,0.362 -0.313,0.754 -0.313,1.175 0,0.669 0.238,1.232 0.714,1.689 0.479,0.456 1.068,0.684 1.768,0.684 0.483,0 1.019,-0.126 1.61,-0.378 l 0,-0.708 C -0.587,2.812 -1.113,2.966 -1.626,2.966 -2.153,2.966 -2.591,2.799 -2.939,2.465 -3.286,2.134 -3.46,1.718 -3.46,1.218 c 0,-0.505 0.172,-0.92 0.514,-1.245 0.342,-0.324 0.78,-0.487 1.313,-0.487 0.558,0 1.102,0.172 1.633,0.514"
           inkscape:connector-curvature="0"
           id="path2782"
           style="fill:#00325d;fill-rule:evenodd;stroke:none" />
      </g>
    </g>
    <g
       transform="matrix(1,0,0,-1,207.7448,498.26099)"
       id="g2822" />
    <g
       transform="matrix(1,0,0,-1,119.8817,424.57028)"
       id="g3612" />
  </g>
</svg>

<?xml version="1.0" encoding="UTF-8" standalone="no"?>
<!-- Created with Inkscape (http://www.inkscape.org/) -->
<svg
   xmlns:dc="http://purl.org/dc/elements/1.1/"
   xmlns:cc="http://web.resource.org/cc/"
   xmlns:rdf="http://www.w3.org/1999/02/22-rdf-syntax-ns#"
   xmlns:svg="http://www.w3.org/2000/svg"
   xmlns="http://www.w3.org/2000/svg"
   xmlns:xlink="http://www.w3.org/1999/xlink"
   xmlns:sodipodi="http://sodipodi.sourceforge.net/DTD/sodipodi-0.dtd"
   xmlns:inkscape="http://www.inkscape.org/namespaces/inkscape"
   width="200"
   height="146"
   id="svg2"
   sodipodi:version="0.32"
   inkscape:version="0.45.1"
   inkscape:output_extension="org.inkscape.output.svg.inkscape"
   version="1.0">
  <g
     inkscape:label="Layer 1"
     inkscape:groupmode="layer"
     id="layer1"
     transform="translate(-578.02181,-355.62997)">
    <g
       id="g2734"
       transform="matrix(3.8390663,0,0,-3.8390663,578.02181,355.68383)">
      <path
         id="path2736"
         d="M 0,0 L 52.096,0 L 52.096,-10.675 L 0,-14.519 L 0,0 z "
         style="fill:#007eab;fill-rule:nonzero;stroke:none" />
    </g>
    <g
       id="g2738"
       clip-path="url(#id179)"
       transform="matrix(3.8390663,0,0,-3.8390663,-1344.0444,2182.6049)">
      <g
         id="g2740"
         transform="translate(543.0224,470.36549)">
        <path
           id="path2742"
           d="M 0,0 C 0,0 -4.452,-4.302 -4.357,-4.42 C -4.261,-4.538 1.165,-1.807 2.009,-1.539 C 2.84,-1.274 3.35,-1.948 3.35,-1.948 C 3.35,-1.948 8.999,-8.262 9.166,-8.109 C 9.318,-7.97 5.809,-0.838 5.584,-0.007 C 5.34,0.889 6.314,1.69 6.314,1.69 C 6.314,1.69 8.338,3.659 9.733,5.092 C 9.733,5.163 9.733,5.446 9.733,5.511 C 9.655,5.511 8.729,5.516 8.718,5.511 C 7.041,4.663 4.976,3.577 4.448,3.368 C 3.554,3.013 3.051,3.503 3.051,3.503 C 3.051,3.503 1.918,4.59 0.896,5.511 C 0.897,5.504 -0.376,5.508 -0.378,5.511 C 0.102,4.204 0.852,2.288 0.952,1.743 C 1.11,0.881 0,0 0,0"
           style="fill:#ffffff;fill-rule:nonzero;stroke:none" />
      </g>
    </g>
    <g
       id="g2744"
       transform="matrix(3.8390663,0,0,-3.8390663,578.02181,409.78238)">
      <path
         id="path2746"
         d="M 0,0 L 52.096,3.843 L 52.096,-23.913 L 0,-23.913 L 0,0 z "
         style="fill:#00325d;fill-rule:nonzero;stroke:none" />
    </g>
    <g
       id="g2748"
       transform="matrix(3.8390663,0,0,-3.8390663,630.02154,477.94849)">
      <path
         id="path2750"
         d="M 0,0 L -2.534,0 L -1.246,3.708 L 0,0 z M 3.207,-3.479 L -0.516,6.714 L -2.076,6.714 L -5.784,-3.479 L -3.708,-3.479 L -3.092,-1.675 L 0.53,-1.675 L 1.131,-3.479 L 3.207,-3.479 z "
         style="fill:#ffffff;fill-rule:nonzero;stroke:none" />
    </g>
    <g
       id="g2752"
       transform="matrix(3.8390663,0,0,-3.8390663,673.10623,491.30388)">
      <path
         id="path2754"
         d="M 0,0 L 0,1.775 L -4.624,1.775 L -4.624,10.193 L -6.614,10.193 L -6.614,0 L 0,0 z "
         style="fill:#ffffff;fill-rule:nonzero;stroke:none" />
    </g>
    <g
       id="g2756"
       clip-path="url(#id180)"
       transform="matrix(3.8390663,0,0,-3.8390663,-1344.0444,2182.6049)">
      <g
         id="g2758"
         transform="translate(532.58479,443.58501)">
        <path
           id="path2760"
           d="M 0,0 C 0,-0.687 -0.43,-1.26 -1.331,-1.26 L -3.407,-1.26 L -3.407,1.245 L -1.331,1.245 C -0.43,1.245 0,0.687 0,0 M -0.143,4.209 C -0.143,3.508 -0.615,3.035 -1.46,3.035 L -3.407,3.035 L -3.407,5.383 L -1.46,5.383 C -0.615,5.383 -0.143,4.911 -0.143,4.209 M 1.99,-0.1 C 1.99,1.26 1.203,1.904 0.587,2.19 C 1.102,2.434 1.847,3.164 1.847,4.295 C 1.847,6.042 0.687,7.158 -1.303,7.158 L -5.398,7.158 L -5.398,-3.035 L -1.131,-3.035 C 0.687,-3.035 1.99,-2.004 1.99,-0.1"
           style="fill:#ffffff;fill-rule:evenodd;stroke:none" />
      </g>
      <g
         id="g2762"
         transform="translate(541.4171,444.0289)">
        <path
           id="path2764"
           d="M 0,0 L -2.534,0 L -1.245,3.708 L 0,0 z M 3.207,-3.479 L -0.515,6.714 L -2.076,6.714 L -5.784,-3.479 L -3.708,-3.479 L -3.092,-1.675 L 0.53,-1.675 L 1.131,-3.479 L 3.207,-3.479 z "
           style="fill:#ffffff;fill-rule:evenodd;stroke:none" />
      </g>
      <path
         id="path2766"
         d="M 515.819,460.335 L 522.495,460.335 L 522.495,454.052 L 515.819,454.052 L 515.819,460.335 z "
         style="fill:#ffffff;fill-rule:evenodd;stroke:none" />
      <path
         id="path2768"
         d="M 523.477,460.335 L 530.153,460.335 L 530.153,454.052 L 523.477,454.052 L 523.477,460.335 z "
         style="fill:#ffffff;fill-rule:evenodd;stroke:none" />
      <path
         id="path2770"
         d="M 531.134,460.335 L 537.81,460.335 L 537.81,454.052 L 531.134,454.052 L 531.134,460.335 z "
         style="fill:#ffffff;fill-rule:evenodd;stroke:none" />
      <g
         id="g2772"
         transform="translate(518.9086,456.9991)">
        <path
           id="path2774"
           d="M 0,0 L -0.615,0 L -0.615,-1.458 L 0.033,-1.458 C 0.393,-1.458 0.636,-1.431 0.764,-1.376 C 0.893,-1.319 0.996,-1.231 1.073,-1.113 C 1.152,-0.994 1.192,-0.867 1.192,-0.731 C 1.192,-0.59 1.15,-0.462 1.066,-0.345 C 0.985,-0.229 0.869,-0.143 0.718,-0.086 C 0.566,-0.029 0.327,0 0,0 M -0.049,1.968 L -0.615,1.968 L -0.615,0.586 L -0.178,0.586 C 0.173,0.586 0.423,0.653 0.569,0.787 C 0.719,0.921 0.793,1.094 0.794,1.307 C 0.794,1.748 0.513,1.968 -0.049,1.968 M 0.283,-2.044 L -1.274,-2.044 L -1.274,2.554 L -0.069,2.554 C 0.31,2.554 0.607,2.503 0.82,2.4 C 1.033,2.299 1.195,2.158 1.307,1.978 C 1.419,1.8 1.475,1.594 1.475,1.359 C 1.475,0.907 1.241,0.583 0.774,0.388 C 1.109,0.325 1.376,0.186 1.573,-0.026 C 1.773,-0.239 1.873,-0.494 1.873,-0.79 C 1.873,-1.025 1.813,-1.234 1.692,-1.419 C 1.571,-1.603 1.394,-1.753 1.159,-1.87 C 0.926,-1.986 0.634,-2.044 0.283,-2.044"
           style="fill:#00325d;fill-rule:evenodd;stroke:none" />
      </g>
      <g
         id="g2776"
         transform="translate(526.5665,456.9991)">
        <path
           id="path2778"
           d="M 0,0 L -0.615,0 L -0.615,-1.458 L 0.033,-1.458 C 0.393,-1.458 0.636,-1.431 0.763,-1.376 C 0.893,-1.319 0.996,-1.231 1.073,-1.113 C 1.152,-0.994 1.192,-0.867 1.192,-0.731 C 1.192,-0.59 1.15,-0.462 1.067,-0.345 C 0.985,-0.229 0.869,-0.143 0.718,-0.086 C 0.566,-0.029 0.327,0 0,0 M -0.049,1.968 L -0.615,1.968 L -0.615,0.586 L -0.178,0.586 C 0.173,0.586 0.422,0.653 0.569,0.787 C 0.718,0.921 0.793,1.094 0.793,1.307 C 0.793,1.748 0.512,1.968 -0.049,1.968 M 0.283,-2.044 L -1.274,-2.044 L -1.274,2.554 L -0.069,2.554 C 0.31,2.554 0.607,2.503 0.819,2.4 C 1.032,2.299 1.195,2.158 1.307,1.978 C 1.419,1.8 1.474,1.594 1.474,1.359 C 1.474,0.907 1.241,0.583 0.773,0.388 C 1.109,0.325 1.376,0.186 1.573,-0.026 C 1.773,-0.239 1.873,-0.494 1.873,-0.79 C 1.873,-1.025 1.813,-1.234 1.692,-1.419 C 1.571,-1.603 1.393,-1.753 1.159,-1.87 C 0.926,-1.986 0.634,-2.044 0.283,-2.044"
           style="fill:#00325d;fill-rule:evenodd;stroke:none" />
      </g>
      <g
         id="g2780"
         transform="translate(536.5208,456.0215)">
        <path
           id="path2782"
           d="M 0,0 L 0,-0.724 C -0.483,-0.988 -1.04,-1.119 -1.672,-1.119 C -2.186,-1.119 -2.621,-1.016 -2.979,-0.81 C -3.337,-0.604 -3.62,-0.32 -3.828,0.043 C -4.037,0.405 -4.141,0.797 -4.141,1.218 C -4.141,1.887 -3.903,2.45 -3.427,2.907 C -2.948,3.363 -2.359,3.591 -1.659,3.591 C -1.176,3.591 -0.64,3.465 -0.049,3.213 L -0.049,2.505 C -0.587,2.812 -1.113,2.966 -1.626,2.966 C -2.153,2.966 -2.591,2.799 -2.939,2.465 C -3.286,2.134 -3.46,1.718 -3.46,1.218 C -3.46,0.713 -3.288,0.298 -2.946,-0.027 C -2.604,-0.351 -2.166,-0.514 -1.633,-0.514 C -1.075,-0.514 -0.531,-0.342 0,0"
           style="fill:#00325d;fill-rule:evenodd;stroke:none" />
      </g>
    </g>
    <g
       id="g2822"
       transform="matrix(1,0,0,-1,207.7448,498.26099)" />
    <g
       id="g3612"
       transform="matrix(1,0,0,-1,119.8817,424.57028)" />
  </g>
</svg>
